!!!OTL: BRUEDER DAS IST DEUTSCHER WEIN
!!!ARE: Europa, Mitteleuropa, Deutschland
!!!SCT: B0330
!!!YEM: Copyright 1995, estate of Helmut Schaffrath.
**kern
*ICvox
*Ivox
!! Mixed meters:  3/4; 2/4
*M2/4
*k[f#]
*G:
=1
{4.g
8d
8d
8d
=2
8.b
16a
4g
4r}
=3
{4.a
8d
8d
8d
=4
8.cc
16b
4a
4r}
=5
{4.d
8b
8b
8b
=6
8.a
16b
4cc
4d}
=7
{4.d
8cc
8cc
8cc
=8
8.b
16cc
4dd
4g}
=9
{4.ee
8cc
8g
8ee
=10
8.dd
16b
2gg}
=11
{8.gg
16dd
8b
8cc
=12
8.ee
16dd
4dd}
=13
{8.ee
16dd
8f#
8a
=14
*M3/4
2ee
4dd
=15
2g}
==
!!!AGN: Trink - Lied
!!!ONB: ESAC (Essen Associative Code) Database: BOEHME
!!!AMT: irregular
!!!AIN: vox
!!!EED: Helmut Schaffrath
!!!EEV: 1.0
*-
